X:1
T:Jesus Kristus er opfaren
T:Jesus Kristus er opfaren
T:(H. Thomissøn) Jesus Christ ist aufgefahren - Jesus Christ Our Lord is risen 
T:Edvard Grieg
%%score [ 1 2 3 ( 4 5 ) ]
L:1/8
Q:1/8=88
M:4/4
K:Bb
V:1 treble nm="Soprani"
V:2 treble nm="Alti"
V:3 treble-8 nm="Tenori"
V:4 bass nm="Bassi"
V:5 bass 
V:1
!pp!"^Lento" G3 G G3/2!<(! G/ G G!<)! |!>(! G4 !fermata!^F2 z2!>)! | z8 | !fermata!z8 | %4
w: 1.Je- sus Christ ist auf- ge-|fah- ren.|||
w: ||||
!p! G2 ^F2 G>A A>B |!<(! G2 A2!<)!!>(! =F=E/>D/ D2-!>)! | D2- D z z4 | z8 | z4 z2!p! (G2- | %9
w: Je- sus Christ * is *|auf- ge- fah- * * ren|_ _||ü-|
w: |||||
 G4 D2) =E2 |!<(! ^F2 (3G3/2A/B!<)! G>A F>!>(!=E | ^F>GA>G!>)! !fermata!G2 z2 | z8 | z4 z2 A2 | %14
w: * * ber|al- le _ _ En- * gel- *|scha- * * * ren.||Him-|
w: |||||
!<(! B2 c2!<)!!>(! (3A3/2B/A!>)! !fermata!A2- | A2 z2 z4 | !fermata!z8 | %17
w: mel- ein gan- * * gen|_||
w: |||
 z2"^cresc." F2!<(! G2 A2!<)! |!f! B>A G>A!>(! F=E/>D/!>)!!p! !fermata!D2 | z8 | z8 | z2 G4 G2 | %22
w: und nahm die|Höll _ ge- * fan- * * gen.|||Ky- ri-|
w: |||||
!<(! D2"^molto" (=E/^F!<)!G/!ff!"^ben ten." !>!B2) A G | (G2"^rit."!>(! ^F)=E (F>GA>G)!>)! | %24
w: e, Ky- * * * ri- e|e- * * lei- * * *|
w: ||
!p!"^a tempo" G8- | G2 z2 |: z4 |!pp! G3 G G3/2 G/ G!<(! G!<)! |!>(! G4!>)! !fermata!^F2 z2 | z8 | %30
w: son.|_||Je- sus Christ ist auf- ge-|fah- ren.||
w: |||Je- sus Kri- stus er op-|fa- ren.||
 z8 |!p! G2 ^F2 G>A A>B |!<(! G2 A2!<)!!>(! =F=E/>D/ D2-!>)! | D2- D z z4 | z8 | z4 z2!p! (G2- | %36
w: |2.Her- re Je- * sus *|wir dan- ken * * dir|_ _||für|
w: |3.Sei- ge- prie- * sen *|dein Him- mels- * * gang|_ _||mitt|
 G4 D2) (=E2 |!<(! ^F2) (3G3/2!<)!A/B!>(! G>A!>)! F>=E |"^dim." ^F>G A>G !fermata!G2 z2 | z8 | %40
w: _ _ dei-|* ne _ _ Wohl- * tat _|für _ und _ für.||
w: _ _ Jauch-|* zen _ _ und * mit _|En- * gel- * sang.||
 z4 z2 A2 |!<(! B2 c2!<)!!>(! (3A3/2B/A!>)! !fermata!A2- | A2 z2 z4 | !fermata!z8 | %44
w: Mit|vol- len Hän- * * den|_||
w: Dein|Lob ge- sun- * * gen|_||
 z2 F2"^cresc." G2 A2 |!f! B>A G>A!>(! F=E/>D/!p! !fermata!D2!>)! | z8 | z8 | z2 G4 G2 | %49
w: gross Freud und|Trost * wollst * spen- * * den.|||Ky- ri-|
w: mit Her- zen,|Mund * und * Zun- * * gen.||||
!<(! D2 (=E/"^molto\n"^FG/)!<)!!ff!"^ben ten." B2 A G | (G2"^rit."!>(! ^F=E) (F>GA>G)!>)! | %51
w: e, Ky- * * * ri- e|e- * * lei- * * *|
w: ||
!p!!>(! G8-!>)! | G2 z2 z4 |] %53
w: son!|_|
w: ||
V:2
!pp! D3 D D3/2!<(! D/ D D!<)! |!>(! G,4 !fermata!D2 z2!>)! | z8 | !fermata!z8 |!p! D2 D2 (DC) E2 | %5
w: 1.Je- sus Kri- stus er op-|fa- ren.|||Je- sus Kri- * stus|
w: |||||
!<(! D2 D2!<)!!>(! B,2 A,2-!>)! | A,2- A, z z4 | z8 | z4 z2!p! (E2 | D2 C2 D2) D2 | %10
w: er op- far- ren|_ _||o-|* * * ver|
w: |||||
!<(! D2 E2!<)! E2!>(! D2 | (C2 G^F)!>)! !fermata!D2 z2 | z8 | z4 z2 F2 | %14
w: al- le Eng- le-|ska- * * re,||Him-|
w: ||||
!<(! G2 G2!<)!!>(! F2 !fermata!F2-!>)! | F2 z2 z4 | !fermata!z8 | z2"^cresc." C2!<(! E2 F2!<)! | %18
w: len ind- gan- gen|_||og tog så|
w: ||||
!f! F2 F=E!>(! A,2!p! !fermata!B,2!>)! | z8 | z8 | z2 D4 C2 | %22
w: Fængs- let * fan- gen.|||Ky- ri-|
w: ||||
!<(! D2"^molto" (D2!<)!!ff!"^ben ten." !>!G2) ^F =E | (_E2"^rit."!>(! D2) (^C2 =C2)!>)! | %24
w: e, Ky- * ri- e|e- * lei- *|
w: ||
!p!"^a tempo" B,8- | B,2 z2 |:!pp! D4- | D3 D D3/2 D/ D!<(! D!<)! |!>(! G,4!>)! !fermata!D2 z2 | %29
w: son.|_|Je-|* sus Christ ist auf- ge-|fah- ren.|
w: ||Je-|* sus Kri- stus er op-|fa- ren.|
 z8 | z8 |!p! D2 D2 DC E2 |!<(! D2 D2!<)!!>(! B,2 A,2-!>)! | A,2- A, z z4 | z8 | z4 z2!p! (_E2 | %36
w: ||2.Her- re Je- * sus|vi tak- ke dig|_ _||for|
w: ||3.Nu vi pri- * se|din Him- mel- gang|_ _||med|
 D2 C2 D2) D2 |!<(! D2 _E2!<)!!>(! E2 D2!>)! |"^dim." (C2 G) ^F !fermata!D2 z2 | z8 | z4 z2 F2 | %41
w: _ _ _ di-|* ne Vel- gjer-|nin- * ger slig.||Som|
w: _ _ _ i-|* del Eng- le-|fryd * og Sang.||Din|
!<(! G2 G2!<)!!>(! F2 !fermata!F2-!>)! | F2 z2 z4 | !fermata!z8 | z2 C2"^cresc." E2 F2 | %45
w: du be- tee- de|_||os til stor|
w: Lov vi sjung ge|_||med Hjer- te,|
!f! F2 DC!>(! A,2!p! !fermata!B,2!>)! | z8 | z8 | z2 D4 C2 | %49
w: Tröst og * Glæ- de,|||Ky- ri-|
w: Mund og * Tun- ge.||||
!<(! D2"^molto" (D2!<)!!ff!"^ben ten." G2) ^F =E | (_E2"^rit."!>(! D2) (^C2 =C2)!>)! | %51
w: e, Ky- * ri- e|e- * lei- *|
w: ||
!p!!>(! B,8-!>)! | B,2 z2 z4 |] %53
w: son!||
w: ||
V:3
!pp! B3 B B3/2!<(! B/ B B!<)! |!>(! c4 !fermata!A2 z2!>)! | z8 | !fermata!z8 |!p! B2 G2 G2 G2 | %5
w: 1.Je- sus Christ ist auf- ge-|fah- ren.|||Je- sus Christ ist|
w: 1.Je- sus Kri- stus er op-|fa- ren.|||Je- sus Kri- stus|
!<(! D=E F2!<)!!>(! G2 (GE!>)! | F2- F) z z4 | z8 | z4 z2!p! A2- | (A4 d2) d2 | %10
w: auf- * ge- fah- ren _|_ _||ü-|* * ber|
w: er * op- fa- ren _|_ _||o-|* * ver|
!<(! c2 (3B3/2c/d!<)! c2!>(! d2 | (BA/G/ ed)!>)! !fermata!B2 z2 | z8 | z4 z2 c2 | %14
w: al- le _ _ En- gel-|scha- * * * * ren.||Him-|
w: a- le _ _ Eng- le-|ska- * * * * re.||Him-|
!<(! e2 e2!<)!!>(! d2 !fermata!c2-!>)! | c2 z2 z4 | !fermata!z8 | z2"^cresc." A2!<(! B2 d2!<)! | %18
w: mel- ein gan- gen|_||und nahm due|
w: len ind- gan- gen|_||og tog så|
!f! Bc d=e!>(! F2!p! !fermata!F2!>)! | z8 | z8 | z2 B4 AG | %22
w: Höll * ge- * fan- gen.|||Ky- ri- *|
w: Fængs- * let * fan- gen.||||
!<(! ^F2"^molto" (Gd!<)!!ff!"^ben ten." !>!ed) ^c c | (!>!A!>!B"^rit."!>(! !>!=c2) (BAG^F)!>)! | %24
w: e, Ky- * * * ri- e|e- * * lei- * * *|
w: ||
!p!"^a tempo" D8- | D2 z2 |: z4 |!pp! B3 B B3/2 B/ B!<(! B!<)! |!>(! c4!>)! !fermata!A2 z2 | z8 | %30
w: son|_||Je- sus Christ ist auf- ge-|fah- ren.||
w: ||||||
 z8 |!p! B2 A2 G2 G2 |!<(! D=E F2!<)!!>(! G2 (GE!>)! | F2- F) z z4 | z8 | z4 z2!p! A2- | %36
w: |2.Her- re Je- sus|wir * dan- ken dir _|_ _||für|
w: |3.Sei ge- pri- sen|dein * Him- mels- gang _|_ _||mitt|
 (A4 d2) d2- |!<(! d2 (3B3/2!<)!c/d!>(! c2 d2!>)! |"^dim." (BA/G/ _e) d !fermata!B2 z2 | z8 | %40
w: _ _ dei-|* ne _ _ Wohl- tat|für _ _ _ and für.||
w: _ _ Jauch-|* zen _ _ und ,it|En- * * * gel- sang.l||
 z4 z2 c2 |!<(! e2 e2!<)!!>(! d2 !fermata!c2-!>)! | c2 z2 z4 | !fermata!z8 | z2 A2"^cresc." B2 d2 | %45
w: Mit|vol- len Hän- den|_||gross Freud und|
w: ||||mit Her- zen,|
!f! Bc f=e!>(! F2!p! !fermata!F2!>)! | z8 | z8 | z2 B4 AG | %49
w: Trost * wollst * spen- den|||Ky- ri- *|
w: Mund * und * Zun- gen.||||
!<(! ^F2 (G"^molto"d!ff!"^ben ten." ed)!<)! ^c c | (AB"^rit."!>(! =c2) BAG^F!>)! |!p!!>(! D8-!>)! | %52
w: e, Ky- * * * ri- e|e- * * lei- * * *|son!|
w: |||
 D2 z2 z4 |] %53
w: |
w: |
V:4
!pp! G,3 G, G,3/2!<(! G,/ G, G,!<)! |!>(! (F,2 E,2) !fermata!D,2 z2!>)! | %2
w: 1.Je- sus Christ ist auf- ge-|fah- * ren.|
w: 1.Je- sus Kri- stus er op-|fa- * ren.|
w: ||
w: ||
w: ||
!p!"^Solo" G,2 ^F,2 G,>A, A,>B, | G,2!<(! A,2 =F,!<)!!>(!=E,/>D,/ !fermata!D,2!>)! | %4
w: Je- sus Christ * ist *|auf- ge- fah- * * ren,|
w: Je- sus Kri- * stus *|er op- fa- * * ren,|
w: ||
w: ||
w: ||
!p!"^Tutti" G,2 D,2 E,2 C,2 |!<(! B,,2 A,,2!<)!!>(! ^C,2 D,2-!>)! | D,2 D, z"^Solo" D,2 =E,2 | %7
w: Je- sus Christ ist|auf- ge- fah- ren|_ _ ü- ber|
w: Je- sus Kri- stus|er op- fa- ren|_ _ o- ver|
w: |||
w: |||
w: |||
!<(! ^F,2 (3G,3/2A,/B,!<)! G,>A, F,>=E, |!>(! ^F,>G,A,>G,!>)! G,4- | G,2 z2 z4 | %10
w: al- le _ _ En- * gel- *|scha- * * * ren,||
w: al- le _ _ Eng- * le- *|ska- * * * re,||
w: |||
w: |||
w: |||
!<(! A,2 G,2!<)! A,2!>(! B,2 | (E,2 C,!>)!D,) !fermata!G,2"^Solo" A,2 | %12
w: al- le En- gel-|scha- * * ren. Him-|
w: al- le Eng- le-|ska- * * re. Him-|
w: ||
w: ||
w: ||
!<(! B,2 C2!<)!!>(! (3A,3/2B,/A,!>)! A,2- | A,6"^Tutti" F,2 | %14
w: mel- ein gan- * * gen|_ Him-|
w: len ind- gan- * * gen|_ Him-|
w: ||
w: ||
w: ||
!<(! E,2 C,2!<)!!>(! D,2 !fermata!F,2-!>)! | F,2"^Solo" F,2!<(! G,2 A,2!<)! | %16
w: mel- ein gan- gen|_ und nahm die|
w: len ind- gan- gen|_ og tog så|
w: ||
w: ||
w: ||
!>(! B,>A, G,>A,!>)! F,=E,/>D,/ !fermata!D,2- | D,2"^Tutti""^cresc." F,2!<(! E,2 D,2!<)! | %18
w: Höll * ge- * fan- * * gen,|_ und nahm die|
w: Fæng- * slet * fan- * * gen,|_ og tog så|
w: ||
w: ||
w: ||
!f! G,A, B,C!>(! D,C,!>)!!p! !fermata!B,,2 |"^Solo"!<(! (D,2 =E,/^F,G,/!f! !>!B,2)!<)! A, G, | %20
w: Höll * ge- * fan- * gen.|Ky- * * * * ri- e|
w: Fængs- * let * fan- * gen.|Ky- * * * * ri- e|
w: ||
w: ||
w: ||
!>(! (G,2 ^F,=E,) (F,>G,A,>G,)!>)! | G,2-"^Tutti" G, z z4 | %22
w: e- * * lei- * * *|son *|
w: e- * * lei- * * *|son. *|
w: ||
w: ||
w: ||
!<(! D,C,"^molto" (B,,B,!<)!!ff!"^ben ten." !>!A,2) A,, A,, |"^rit."!>(! D,4 D,4!>)! | %24
w: e, * Ky- * * ri- e|e- lei-|
w: ||
w: ||
w: ||
w: ||
!p!"^a tempo" G,,8- | G,,2 z2 |: z4 |!pp! G,3 G, G,3/2 G,/ G,!<(! G,!<)! | %28
w: son|_|||
w: |||Je- sus Kri- stus er op-|
w: ||||
w: ||||
w: ||||
!>(! F,2 E,2!>)! !fermata!D,2 z2 |!p!"^Solo" G,2 ^F,2 G,>A, A,>B, | %30
w: ||
w: fa- * ren.|2.Her- re Je- * sus *|
w: |2.Sei- ge- prie- * sen *|
w: |3.Her- re Je- * sus *|
w: |3.Nu vi pri- * se *|
!<(! G,2 A,2!<)!!>(! =F,=E,/>D,/!>)! !fermata!D,2 |!p!"^Tutti" G,2 D,2 E,2 C,2 | %32
w: |2.Her- re Je- sus|
w: wir dan- ken * * dir|3.Nu vi pri- se|
w: dein Him- mels- * * gang||
w: vi tak- ke * * dig||
w: din Him- mel- * * gang||
!<(! B,,2 A,,2!<)!!>(! ^C,2 D,2-!>)! | D,2 D, z"^Solo" D,2 (=E,2 | %34
w: vi tak- ke dig|_ _ für dei-|
w: din Him- mel- gang|_ _ mit Jauch-|
w: |* * for di-|
w: |* * med i-|
w: ||
!<(! ^F,2) (3G,3/2A,/B,!<)! G,>A,!>(! F,>=E,!>)! | ^F,>G, A,>G, G,2-!p!"^Tutti" (G, z | %36
w: * ne _ _ Wohl- * tat *|für * und * für. for|
w: * zen _ _ und * mit *|En- * gel- * sang, med|
w: * ne _ _ Vel- * gjer *|nin- * ger * slig *|
w: * del _ _ Eng- * le *|fryd * og * Sang. *|
w: ||
 D,2 D,2 D,D) (C!<(!B, | A,2)!<)! G,2!>(! A,2 B,2!>)! | %38
w: _ _ _ _ di- *|* ne Vel- gjer-|
w: _ _ _ _ i- *|* del Eng- le-|
w: ||
w: ||
w: ||
"^dim." (E,2 C,) D, !fermata!G,2"^Solo" A,2 |!<(! B,2 C2!<)!!>(! (3A,3/2B,/A,!>)! A,2- | %40
w: nin- * ger slig. Mit|vol- len Hän- * * den|
w: fryd * og Sang. Dein|Lob- ge- sun- * * gen|
w: * * * * Som|dy be- tee- * * de|
w: * * * * Din|Lov vi sjun- * * ge|
w: ||
 A,6"^Tutti" F,2 |!<(! E,2 C,2!<)!!>(! F,2 !fermata!F,2-!>)! | F,2"^Solo" F,2!<(! G,2 A,2!<)! | %43
w: _ Som|du be- tee- de|_ gross Freud und|
w: _ Din|Lov vi sjun- ge|_ mitt Her- zen,|
w: ||* os til stor|
w: ||* med Hjer- te,|
w: |||
 B,>A, G,>A,!>(! F,=E,/>D,/!>)! !fermata!D,2- | D,2"^Tutti" F,2"^cresc." _E,2 D,2 | %45
w: Trost * wollst * spen- * * den.|* os til stor|
w: Mand * und * Zun- * * gen.|* med Hjer- te,|
w: Tröst * og * Gæ Glæ- * de,||
w: Mund * og * Tun- * * ge,||
w: ||
!f! G,A, B,C!>(! D,C,!p! !fermata!B,,2!>)! | %46
w: Tröst * og * Glæ- * de,|
w: Mund * og * Tun- * ge.|
w: |
w: |
w: |
"^Solo"!<(! (D,2"^Molto" =E,/^F,!<)!G,/!ff! !>!B,2) A, G, | (G,2 ^F,=E,) (F,>G,A,>G,) | %48
w: Ky- * * * * ri- e|e- * * lei- * * *|
w: Ky- * * * * ri- e|e- * * lei- * * *|
w: ||
w: ||
w: ||
 G,2 G, z z4 |!<(! D,C, (B,,"^molto"B,!ff!"^ben ten." A,2)!<)! A,, A,, | D,4"^rit."!>(! D,4!>)! | %51
w: son! Ky|e, * Ky- * * ri- e|e- lei-|
w: son! *|||
w: |||
w: |||
w: |||
!p!!>(! G,,8-!>)! | G,,2 z2 z4 |] %53
w: son!|_|
w: ||
w: ||
w: ||
w: ||
V:5
 x8 | x8 | x8 | x8 | x8 | x8 | x8 | x8 | z4 z2!p!"^Tutti" (C,2 | D,2 E,2 D,D) CB, | x8 | x8 | x8 | %13
w: |||||||||ü- * * * ber *||||
w: |||||||||o- * * * ver *||||
 x8 | x8 | x8 | x8 | x8 | x8 | x8 | x8 | z2 E,4 E,2 | x8 | x8 | x8 | x4 |: x4 | x8 | x8 | x8 | x8 | %31
w: ||||||||Ky- ri||||||||||
w: ||||||||||||||||||
 x8 | x8 | x8 | x8 | z4 z2 C,2 | x8 | x8 | x8 | x8 | x8 | x8 | x8 | x8 | x8 | x8 | x8 | x8 | %48
w: |||||||||||||||||
w: |||||||||||||||||
 z2 _E,4 E,2 | x8 | x8 | x8 | x8 |] %53
w: * ri|||||
w: |||||

